X: 42692
T: Whistler Of Rosslea, The
R: reel
M: 4/4
K: Cdorian
CDEF G2FD|GDFD EC~C2|B,CDE ~F2EF|G_AFG EFDE|
CDEC DEFD|GABG cBGF|EFF/F/E F_ADF|ECDB, C4:|
|:c2Gc EcGc|~c2dc cBGA|~B2FB DBFB|BAGF ECB,D|
CccB cBGF|EFGA B3c|cBGF EFF/F/E|FB,DB, C4:|

